X: 2
T: The Doon
R: reel
M: 4/4
L: 1/8
K: Dmaj
DFAF BFAF|DFAF E2FE|D2FA BAFA|1 (3Bcd ec dBAF:|2 (3Bcd ec d3A||d2fd Adfd|Adfd BABc|d2fd Adfb|afea fddA|d2fd Adfd|Adfd ~e3f|gfec dcBA|(3Bcd ec dBAF||


Tune 438	Setting 438

